X:1
T:KK House
T:KK House
T:Animal Crossing New Horrizons
%%score { 1 | 2 } 3 4 5
L:1/8
Q:1/4=122
M:4/4
K:C
V:1 treble nm="Grand Piano" snm="Pno."
V:2 bass 
V:3 bass transpose=-12 nm="Acoustic Bass" snm="Bass"
V:4 treble nm="Flute" snm="Fl."
V:5 treble transpose=-14 nm="Saxophone" snm="Sax."
V:1
 z8 | z8 | z8 | z8 | z8 | z8 | z8 | z8 | z [F,A,C]3/2[F,A,C]3/2 [F,A,C]3/2[F,A,C]3/2[F,A,C]- | %9
 [F,A,C][B,D_G]3/2[B,DG]3/2 [B,DG]3/2[B,DG]3/2[B,DG]- | %10
 [B,DG][E,_A,_D]3/2[E,A,D]3/2 [E,A,D]3/2[E,A,D]3/2[E,A,D] | [_A,_DE]4 [G,_B,DF]4 | %12
 z [F,A,C]3/2[F,A,C]3/2 [F,A,C]3/2[F,A,C]3/2[F,A,C]- | %13
 [F,A,C][B,D_G]3/2[B,DG]3/2 [B,DG]3/2[B,DG]3/2[B,DG]- | %14
 [B,DG][E,_A,_D]3/2[E,A,D]3/2 [E,A,D]3/2[E,A,D]3/2[E,A,D] | [_A,_DE]4 [G,_B,DF]4 | z8 | z8 | z8 | %19
 z8 | z8 | z8 | z8 | z4 z2 [B,D][C_E] |: %24
 [A,CE]/[A,CE]/[A,CE] [A,CE]/[A,CE]/[A,CE] [A,CE]3/2[A,CE]3/2[A,CE] | %25
 [B,D^F]/[B,DF]/[B,DF] [B,DF]/[B,DF]/[B,DF] [B,DF]3/2[B,DF]3/2[B,DF] | %26
 [_A,^CE]/[A,CE]/[A,CE] [A,CE]/[A,CE]/[A,CE] [A,CE]3/2[A,CE]3/2[A,CE] |1 [_A,_DE]4 [G,_B,DF]4 :|2 %28
 [_A,_DE]4 [G,_B,DF]4 || z8 | z8 | z8 | z8 | z8 | z8 | z8 | [_A,_DE]2 z2 z4 |] %37
V:2
 D,,3/2A,,3/2 D,2 D,, D,D,,/_E,,/ | E,,3/2B,,3/2 E,2 E,, E,G,,,/_A,,,/ | %2
 A,,,3/2E,,3/2 A,,2 A,,, A,,G,,,/_A,,,/ | A,,,3/2E,,3/2{/_B,,} =B,,2 A,,E,,_E,, | %4
 D,,3/2A,,3/2 D,2 D,, D,D,,/_E,,/ | E,,3/2B,,3/2 E,2 E,, E,G,,,/_A,,,/ | %6
 A,,,3/2E,,3/2 A,,2 A,,, A,,G,,,/_A,,,/ | A,,,2 z2 z2 !~(!A,,!~)!A,,, | D,,4 D,,3/2D,,3/2D,, | %9
 E,,4 E,,3/2E,,3/2E,, | A,,,4 A,,,3/2A,,,3/2A,,, | A,,4 _E,,4 | D,,4 D,,3/2D,,3/2D,, | %13
 E,,4 E,,3/2E,,3/2E,, | A,,,4 A,,,3/2A,,,3/2A,,, | A,,4 _E,,2 C,,_D,, | %16
 D,,3/2A,,3/2 D,2 D,, D,D,,/_E,,/ | E,,3/2B,,3/2 E,2 E,, E,G,,,/_A,,,/ | %18
 A,,,3/2E,,3/2 A,,2 A,,, A,,G,,,/_A,,,/ | A,,,3/2E,,3/2{/_B,,} =B,,2 A,,E,,_E,, | %20
 D,,3/2A,,3/2 D,2 D,, D,D,,/_E,,/ | E,,3/2B,,3/2 E,2 E,, E,G,,,/_A,,,/ | %22
 A,,,3/2E,,3/2 A,,2 A,,, A,,G,,,/_A,,,/ | A,,,A,,B,,,B,, C,,C,_D,,_D, |: %24
 D,,2 C,3/2D,,3/2C,3/2C,3/2 | E,,2 D,3/2E,,3/2D,3/2D,3/2 | A,,,2 A,,3/2A,,,3/2A,,3/2A,,3/2 |1 %27
 A,,4 _E,,4 :|2 A,,4 _E,,2 C,,_D,, || D,,3/2A,,3/2 D,2 D,, D,D,,/_E,,/ | %30
 E,,3/2B,,3/2 E,2 E,, E,G,,,/_A,,,/ | A,,,3/2E,,3/2 A,,2 A,,, A,,G,,,/_A,,,/ | %32
 A,,,3/2E,,3/2{/_B,,} =B,,2 A,,E,,_E,, | D,,3/2A,,3/2 D,2 D,, D,D,,/_E,,/ | %34
 E,,3/2B,,3/2 E,2 E,, E,G,,,/_A,,,/ | A,,,3/2E,,3/2 A,,2 A,,, A,,G,,,/_A,,,/ | A,,,2 z2 z4 |] %37
V:3
 D,3/2A,3/2 D2 D, DD,/_E,/ | E,3/2B,3/2 E2 E, EG,,/_A,,/ | A,,3/2E,3/2 A,2 A,, A,G,,/_A,,/ | %3
 A,,3/2E,3/2 B,2 A,E,_E, | D,3/2A,3/2 D2 D, DD,/_E,/ | E,3/2B,3/2 E2 E, EG,,/_A,,/ | %6
 A,,3/2E,3/2 A,2 A,, A,G,,/_A,,/ | A,,2 z2 z2 !~(!A,!~)!A,, | D,3/2A,3/2 D2 D, DD,/_E,/ | %9
 E,3/2B,3/2 E2 E, EG,,/_A,,/ | A,,3/2E,3/2 A,2 A,, A,G,,/_A,,/ | A,4 _E,4 | %12
 D,3/2A,3/2 D2 D, DD,/_E,/ | E,3/2B,3/2 E2 E, EG,,/_A,,/ | A,,3/2E,3/2 A,2 A,, A,G,,/_A,,/ | %15
 A,4 _E,2 C,_D, | D,3/2A,3/2 D2 D, DD,/_E,/ | E,3/2B,3/2 E2 E, EG,,/_A,,/ | %18
 A,,3/2E,3/2 A,2 A,, A,G,,/_A,,/ | A,,3/2E,3/2 B,2 A,E,_E, | D,3/2A,3/2 D2 D, DD,/_E,/ | %21
 E,3/2B,3/2 E2 E, EG,,/_A,,/ | A,,3/2E,3/2 A,2 A,, A,G,,/_A,,/ | A,,A,B,,B, C,C_D,_D |: %24
 D,4- D, F,3 | E,4- E, G,3 | A,,4- A,, A,,3 |1 A,4 _E,4 :|2 A,4 _E,2 C,_D, || %29
 D,3/2A,3/2 D2 D, DD,/_E,/ | E,3/2B,3/2 E2 E, EG,,/_A,,/ | A,,3/2E,3/2 A,2 A,, A,G,,/_A,,/ | %32
 A,,3/2E,3/2 B,2 A,E,_E, | D,3/2A,3/2 D2 D, DD,/_E,/ | E,3/2B,3/2 E2 E, EG,,/_A,,/ | %35
 A,,3/2E,3/2 A,2 A,, A,G,,/_A,,/ | A,,2 z2 z4 |] %37
V:4
 z8 | z8 | z8 | z8 | eA c/d e4 z/ | z A c/g e4 z/ | z8 | z8 | eA c/d e4 z/ | z A c/g e4 z/ | %10
 z e g/a e4 z/ | z8 | eA c/d e4 z/ | z A c/g e4 z/ | z A A/g e4 z/ | z8 | z8 | z8 | z8 | z8 | z8 | %21
 z8 | z8 | z8 |: z z z2 z A cd/e/- | eA cd<_edcA- | A2 z2 z4 |1 z8 :|2 z8 || z8 | z8 | z8 | z8 | %33
 z8 | z8 | z8 | z8 |] %37
V:5
[K:D] z8 | z8 | z8 | z8 | fB d/e f4 z/ | z B d/a f4 z/ | z8 | z8 | fB d/e f4 z/ | z B d/a f4 z/ | %10
 z f a/b f4 z/ | z8 | fB d/e f4 z/ | z B d/a f4 z/ | z B B/a f4 z/ | z8 | z8 | z8 | z8 | z8 | z8 | %21
 z8 | z8 | z8 |: z z z2 z B de/f/- | fB de<=fedB- | B2 z2 z4 |1 z8 :|2 z8 || z8 | z8 | z8 | z8 | %33
 z8 | z8 | z8 | z8 |] %37

